packages/dnb-ui-lib/assets/icons/camera_medium.svg

<svg width="24" height="24" viewBox="0 0 24 24" fill="none" xmlns="http://www.w3.org/2000/svg">
<path d="M23 19.5C23 20.0523 22.5523 20.5 22 20.5H2C1.44772 20.5 1 20.0523 1 19.5L1 7.5C1 6.94772 1.44772 6.5 2 6.5H6.58581C6.85103 6.5 7.10538 6.39464 7.29292 6.20711L9.70713 3.79289C9.89467 3.60536 10.149 3.5 10.4142 3.5H13.5858C13.851 3.5 14.1054 3.60536 14.2929 3.79289L16.7071 6.20711C16.8947 6.39464 17.149 6.5 17.4142 6.5H22C22.5523 6.5 23 6.94772 23 7.5V19.5Z" stroke="black" stroke-width="1.5"/>
<path d="M15 13C15 14.6569 13.6569 16 12 16C10.3432 16 9.00003 14.6569 9.00003 13C9.00003 11.3431 10.3432 10 12 10C13.6569 10 15 11.3431 15 13Z" stroke="black" stroke-width="1.5"/>
</svg>

<svg width="24" height="24" viewBox="0 0 24 24" fill="none" xmlns="http://www.w3.org/2000/svg"><path d="M23 19.5a1 1 0 01-1 1H2a1 1 0 01-1-1v-12a1 1 0 011-1h4.586a1 1 0 00.707-.293l2.414-2.414a1 1 0 01.707-.293h3.172a1 1 0 01.707.293l2.414 2.414a1 1 0 00.707.293H22a1 1 0 011 1v12z" stroke="#000" stroke-width="1.5"/><path d="M15 13a3 3 0 11-6 0 3 3 0 016 0z" stroke="#000" stroke-width="1.5"/></svg>
